X:1
T:Why Did My Savior Come to Earth?
T:Why Did My Savior Come to Earth?
T:James Gerald Dailey
T:James Gerald Dailey,  1892
T:Public Domain Courtesy of the Cyber Hymnal™
C:James Gerald Dailey
Z:Public Domain
Z:Courtesy of the Cyber Hymnal™
%%score ( 1 2 ) ( 3 4 )
L:1/8
Q:1/4=105
M:4/4
K:F
V:1 treble 
V:2 treble 
V:3 bass 
V:4 bass 
V:1
 [Fc]2 | [Fc]3 [FB] [FA][EG][CF][EG] | (A2 B2 A2) [EG]2 | F3 F [EG]3 [EG] | [FA]6 [Fc]2 | %5
w: 1.~Why|did my Sav- ior come to|earth * * And|to the hum- ble|go? Why|
w: 2.~Why|did He drink the bit- ter|cup * * Of|sor- row, pain and|woe? Why|
w: 3.~Till|Je- sus comes I’ll sing His|praise * * And|then to glo- ry|go, And|
 [Fc]3 [FB] [FA][DG][CF][EG] | (A2 B2 A2) [DG]2 | [CF]3 [FA] [EA]3 [CG] | [CF]6 ||"^Refrain" A2 | %10
w: did He choose a low- ly|birth? * * Be-|cause He loved me|so!|He|
w: on the cross be lift- ed|up? * * Be-|cause He loved me|so!||
w: reign with Him thro’ end- less|days, * * Be-|cause He loved me|so!||
 (A2 [FB]2 [FA]2) [CG]2 | F6 ([FA][GB]) | ([Ac]2 [Bd]2 [Ac]2) [FA]2 | !fermata!G6 (!fermata!AB) | %14
w: loved * * me|so, He *|loved * * me|so; He *|
w: ||||
w: ||||
 [Fc]3 [FB] [FA][EG][CF][EG] | [FA]2 [EB]2 [FA]2 [DG]2 | [CF]3 [FA] [EA]3 [CG] | [CF]6 |] %18
w: gave His pre- cious life for|me, for me, Be-|cause He loved me|so.|
w: ||||
w: ||||
V:2
 x2 | x8 | F6 x2 | F3 F x4 | x8 | x8 | F6 x2 | x8 | x6 || x2 | x8 | (C2 D2 C2) x2 | x8 | %13
 (E2 F2 E2) F2 | x8 | x8 | x8 | x6 |] %18
V:3
 [F,A,]2 | [F,A,]3 [F,D] [F,C][F,B,][F,A,][F,B,] | (C2 D2 C2) [C,B,]2 | %3
w: ~|~ ~ ~ ~ ~ ~|~ * * ~|
 [D,A,]3 [D,A,] [C,C]3 [C,C] | [F,C]6 [F,A,]2 | [F,A,]3 [F,D] [F,C][F,B,][F,A,][F,B,] | %6
w: ~ ~ ~ ~|~ ~|~ ~ ~ ~ ~ ~|
 (C2 D2 C2) [B,,B,]2 | [C,A,]3 [C,C] [C,C]3 [C,B,] | [F,A,]6 || C2 | C2 D2 C2 [C,B,]2 | %11
w: ~ * * ~|~ ~ ~ ~|~|~|~ He loved, He|
 [F,A,]2 [F,B,]2 [F,A,]2 z2 | z2 F2 F2 [F,C]2 | [G,C]2 [G,,=B,]2 !fermata![C,C]2 (CB,) | %14
w: loved me so,|He loved, He|loved me so, * *|
 [F,A,]3 [F,D] [F,C][C,B,][A,,A,][G,,B,] | [F,,C]2 [G,,C]2 [A,,C]2 [B,,B,]2 | %16
w: ||
 [C,A,]3 [C,C] [C,C]3 [C,B,] | [F,A,]6 |] %18
w: ||
V:4
 x2 | x8 | F,6 x2 | x8 | x8 | x8 | F,6 x2 | x8 | x6 || x2 | x8 | x8 | x8 | x6 F,2 | x8 | x8 | x8 | %17
 x6 |] %18

